lite/images/sprite/ico-spices/ico-spices__13~after.svg

<?xml version="1.0" encoding="utf-8"?><svg xmlns="http://www.w3.org/2000/svg" width="90" height="70" viewBox="0 0 90 70"><g fill-rule="evenodd" clip-rule="evenodd"><path fill="#FE802C" d="M39.8 15.9H33l-9.6 11.3v36.4h24.2V27.5l-7.8-11.6zm2.6-5.3H30.6v4.1h11.9v-4.1z"/><path fill="#fff" d="M35.5 36.6h12.2v18H35.5z"/><path fill="#FFB943" d="M59.8 28.6h-5l-7.3 8.2v26.8h19V37l-6.7-8.4zm1.7-5h-7.9v4.1h7.9v-4.1z"/><path fill="#fff" d="M56.4 43.7h10.1v13H56.4z"/></g></svg>

<?xml version="1.0" encoding="utf-8"?>
<!-- Generator: Adobe Illustrator 17.1.0, SVG Export Plug-In . SVG Version: 6.00 Build 0)  -->
<!DOCTYPE svg PUBLIC "-//W3C//DTD SVG 1.1//EN" "http://www.w3.org/Graphics/SVG/1.1/DTD/svg11.dtd">
<svg version="1.1" xmlns="http://www.w3.org/2000/svg" xmlns:xlink="http://www.w3.org/1999/xlink" x="0px" y="0px" width="90px"
	 height="70px" viewBox="0 0 90 70" enable-background="new 0 0 90 70" xml:space="preserve">
<g id="Слой_47__x2B__Слой_0__x2B__Группа_1__x2B__Фигура_1_копия_2_xA0_Изображение_1_" display="none">
	
		<image display="inline" overflow="visible" width="980" height="600" id="Слой_47__x2B__Слой_0__x2B__Группа_1__x2B__Фигура_1_копия_2_xA0_Изображение" xlink:href="29415094.png"  transform="matrix(1 0 0 1 -114.4452 -459.3333)">
	</image>
</g>
<g id="Группа_179_1_" display="none">
	<g id="Группа_178_3_" display="inline">
		<g id="Тень_Слой_48_xA0_Изображение_1_">
			
				<image overflow="visible" width="980" height="600" id="Тень_Слой_48_xA0_Изображение" xlink:href="29415095.png"  transform="matrix(1 0 0 1 -114.4452 -459.3333)">
			</image>
		</g>
		<g id="Фигура_753_2_" enable-background="new    ">
			<defs>
				<path id="SVGID_1_" enable-background="new    " d="M788.6-861.3l-290,5c-11,0-20,9-20,20l-0.4,62.4l-43.6,47.6l43.3-8.3
					l-0.3,50.3c0,11,9,20,20,20l290,15c11,0,20-9,20-20l1-172C808.6-852.4,799.6-861.3,788.6-861.3z"/>
			</defs>
			<clipPath id="SVGID_2_">
				<use xlink:href="#SVGID_1_"  overflow="visible"/>
			</clipPath>
			<g clip-path="url(#SVGID_2_)">
				
					<image overflow="visible" width="980" height="600" id="Фигура_753_xA0_Изображение" xlink:href="29415093.png"  transform="matrix(1 0 0 1 -114.4452 -459.3333)">
				</image>
			</g>
		</g>
	</g>
</g>
<g id="шапка_сайта_1_">
	<g id="Группа_176_1_">
		<g id="иконки_1_">
			<g id="диалоги_1_" display="none">
			</g>
			<g id="мой_жираф_1_" display="none">
			</g>
		</g>
		<g id="поиск__x2B__добавить_1_">
			<g id="поиск_1_">
			</g>
		</g>
	</g>
</g>
<g id="категории_1_">
	<g id="_x31__ряд_1_">
		<g id="_x31__3_">
			<g id="К_мясу_xA0_Изображение_1_" display="none">
			</g>
		</g>
		<g id="_x32__1_">
			<g id="К_овощам_и_грибам_xA0_Изображение_1_" display="none">
			</g>
			<g id="_x31__копия_20_1_">
			</g>
		</g>
		<g id="_x33__1_">
			<g id="К_крупам_xA0_Изображение_1_" display="none">
			</g>
		</g>
		<g id="_x34__1_">
			<g id="К_рыбе_xA0_Изображение_1_" display="none">
			</g>
			<g id="_x31__копия_18_1_">
			</g>
		</g>
	</g>
	<g id="_x31__ряд_копия_1_">
		<g id="_x31__копия_1_">
			<g id="К_макаронам_xA0_Изображение_1_" display="none">
			</g>
			<g id="_x31__2_">
			</g>
		</g>
		<g id="_x32__копия_1_">
			<g id="К_бобовым_xA0_Изображение_1_" display="none">
			</g>
		</g>
		<g id="_x33__копия_1_">
			<g id="К_салатам_xA0_Изображение_1_" display="none">
			</g>
			<g id="_x31__копия_23_1_">
				<g id="Фигура_302_xA0_Изображение_1_">
				</g>
			</g>
		</g>
		<g id="_x34__копия_1_">
			<g id="К_маринадам_xA0_Изображение_1_" display="none">
			</g>
			<g id="_x31__копия_28_1_">
			</g>
		</g>
	</g>
	<g id="_x31__ряд_копия_2_1_">
		<g id="_x31__копия_2_1_">
			<g id="К_птице_xA0_Изображение_1_">
			</g>
		</g>
		<g id="_x32__копия_2_1_">
			<g id="К_супам_xA0_Изображение_1_">
			</g>
		</g>
		<g id="_x33__копия_2_1_">
			<g id="Для_варений_xA0_Изображение_1_">
			</g>
			<g id="_x31__копия_30_1_">
			</g>
		</g>
		<g id="_x34__копия_2_1_">
			<g id="К_напиткам_xA0_Изображение_1_">
			</g>
			<g id="_x31__копия_31_1_">
			</g>
		</g>
	</g>
	<g id="_x31__ряд_копия_3_1_">
		<g id="_x31__копия_4_1_">
			<g id="К_соусам_xA0_Изображение_1_">
			</g>
			<g id="_x31__копия_25_1_">
				<g id="Фигура_286_копия_2">
					<g>
						<path fill-rule="evenodd" clip-rule="evenodd" fill="#FE802C" d="M39.8,15.9h-6.8l-9.6,11.3l0,36.4h24.2l0-36.1L39.8,15.9z
							 M42.4,10.6H30.6v4.1h11.9V10.6z"/>
					</g>
				</g>
				<g id="Фигура_287_копия_2">
					<g>
						<rect x="35.5" y="36.6" fill-rule="evenodd" clip-rule="evenodd" fill="#FFFFFF" width="12.2" height="18"/>
					</g>
				</g>
				<g id="Фигура_286_копия_3">
					<g>
						<path fill-rule="evenodd" clip-rule="evenodd" fill="#FFB943" d="M59.8,28.6h-5l-7.3,8.2l0,26.8l19,0l0-26.6L59.8,28.6z
							 M61.5,23.6h-7.9v4.1h7.9V23.6z"/>
					</g>
				</g>
				<g id="Фигура_287_копия_3">
					<g>
						<rect x="56.4" y="43.7" fill-rule="evenodd" clip-rule="evenodd" fill="#FFFFFF" width="10.1" height="13"/>
					</g>
				</g>
			</g>
		</g>
		<g id="_x32__копия_3_1_">
			<g id="К_хлебо_булочным_изделиям_xA0_Изображение_1_">
			</g>
			<g id="_x31__копия_19_1_">
				<g id="Фигура_259_копия_2_xA0_Изображение_1_">
				</g>
			</g>
		</g>
		<g id="_x33__копия_3_1_">
			<g id="К_кондитерским_изделиям_xA0_Изображение_1_">
			</g>
			<g id="птироженое_копия_1_">
			</g>
		</g>
		<g id="_x34__копия_3_1_">
			<g id="Для_консерваций_и_солений_xA0_Изображение_1_">
			</g>
			<g id="Группа_9_копия_1_">
				<g id="_x31__банка_1_">
				</g>
			</g>
		</g>
	</g>
</g>
<g id="по_алфавиту_1_" display="none">
	<g id="a_1_" display="inline">
	</g>
	<g id="б_1_" display="inline">
	</g>
	<g id="в_1_" display="inline">
	</g>
	<g id="м_1_" display="inline">
	</g>
	<g id="н_1_" display="inline">
	</g>
	<g id="о_1_" display="inline">
	</g>
	<g id="иконка_3_" display="inline">
	</g>
</g>
<g id="Фигура_750_2_" display="none" enable-background="new    ">
</g>
<g id="Группа_178_2_">
	<g id="иконка_2_">
	</g>
</g>
</svg>
